weight-gram.svg

<svg fill="currentColor" viewBox="0 0 24 24"><path d="M19.95 10.56C19.75 9.67 18.95 9 18 9h-2.54c.35-.59.54-1.27.54-2a4 4 0 0 0-4-4 4 4 0 0 0-4 4c0 .73.19 1.41.54 2H6c-.95 0-1.75.67-1.95 1.56C2.04 18.57 2 18.78 2 19a2 2 0 0 0 2 2h16a2 2 0 0 0 2-2c0-.22-.04-.43-2.05-8.44M12 5a2 2 0 0 1 2 2 2 2 0 0 1-2 2 2 2 0 0 1-2-2 2 2 0 0 1 2-2m3 8h-4v4h2v-3h2v5h-4c-1.11 0-2-.89-2-2v-4c0-1.11.89-2 2-2h4z"/></svg>

<svg  viewBox="0 0 24 24" fill="currentColor"><path  d="M19.95,10.56C19.75,9.67 18.95,9 18,9H15.46C15.81,8.41 16,7.73 16,7A4,4 0 0,0 12,3A4,4 0 0,0 8,7C8,7.73 8.19,8.41 8.54,9H6C5.05,9 4.25,9.67 4.05,10.56C2.04,18.57 2,18.78 2,19A2,2 0 0,0 4,21H20A2,2 0 0,0 22,19C22,18.78 21.96,18.57 19.95,10.56M12,5A2,2 0 0,1 14,7A2,2 0 0,1 12,9A2,2 0 0,1 10,7A2,2 0 0,1 12,5M15,13H11V17H13V14H15V19H11C9.89,19 9,18.11 9,17V13C9,11.89 9.89,11 11,11H15V13Z"/></svg>
